X: 3152
T: Oer the Moor amang the Heather.   a Reel.
%R: reel
B: Niel Gow & Sons "Complete Repository" v.3 p.15 #2
Z: 2021 John Chambers <jc:trillian.mit.edu>
M: C|
L: 1/8
K: G
% - - - - - - - - - -
V: 1 staves=2
|:\
DG-<GA G>AGD | EA-A>B A>BAG | GABc de/f/ gd | (e/f/g) B>g A>BAG :| Gg-g>a g>agd | ea-a>b a>bag |
bagf (de/f/) gd | (e/f/g) Bg A>BAG || Gg-g>a g>agd | ea-a>b a>bag | (b/a/g) (a/g/f) de/f/ gd | (e/f/g) dB A>BAG |]
% - - - - - - - - - -
V: 2 clef=bass middle=d
|:\
G2G2 B2B2 | c2c2 d2d2 | B2G2 B2G2 | c2G2 d2D2 :| g2g2 b2b2 | c'2c'2 d'2d'2 |
b2c'2 b2g2 | c'2g2 d'2d2 || g2g2 b2b2 | c'2^c'2 d'2d'2 | b2c'2 b2b2 | c'2b2 d'2d2 |]
% - - - - - - - - - -
%%text See Slow set Part 1st Page 8d.


